austria/municipalities/70935.svg

<?xml version="1.0" encoding="UTF-8"?>
<!DOCTYPE svg PUBLIC "-//W3C//DTD SVG 1.1//EN" "http://www.w3.org/Graphics/SVG/1.1/DTD/svg11.dtd">
<svg xmlns="http://www.w3.org/2000/svg" version="1.1" width="166px" height="192px" style="shape-rendering:geometricPrecision; text-rendering:geometricPrecision; image-rendering:optimizeQuality; fill-rule:evenodd; clip-rule:evenodd" xmlns:xlink="http://www.w3.org/1999/xlink">
<g><path style="opacity:1" fill="#000000" d="M -0.5,-0.5 C 54.8333,-0.5 110.167,-0.5 165.5,-0.5C 165.5,39.5 165.5,79.5 165.5,119.5C 161.89,140.883 151.89,158.716 135.5,173C 130.672,176.581 125.672,179.915 120.5,183C 112.336,186.554 104.002,189.388 95.5,191.5C 86.8333,191.5 78.1667,191.5 69.5,191.5C 30.064,182.064 6.73062,157.397 -0.5,117.5C -0.5,78.1667 -0.5,38.8333 -0.5,-0.5 Z"/></g>
<g><path style="opacity:1" fill="#c80200" d="M 3.5,3.5 C 56.1667,3.5 108.833,3.5 161.5,3.5C 161.667,43.1681 161.5,82.8347 161,122.5C 153.444,155.722 133.278,176.888 100.5,186C 59.6306,192.648 29.464,177.815 10,141.5C 7.41718,135.003 5.41718,128.336 4,121.5C 3.50001,82.1681 3.33335,42.8347 3.5,3.5 Z"/></g>
<g><path style="opacity:1" fill="#000000" d="M 74.5,19.5 C 73.5,19.5 72.5,19.5 71.5,19.5C 72.2601,17.0155 73.2601,17.0155 74.5,19.5 Z"/></g>
<g><path style="opacity:1" fill="#fcfcfc" d="M 71.5,19.5 C 72.5,19.5 73.5,19.5 74.5,19.5C 79.3752,22.1043 84.3752,24.4376 89.5,26.5C 89.8333,27.1667 90.1667,27.8333 90.5,28.5C 87.9922,32.1822 85.9922,36.1822 84.5,40.5C 82.1759,40.8773 81.5092,41.8773 82.5,43.5C 79.8333,45.5 77.5,47.8333 75.5,50.5C 74.1667,50.5 73.5,51.1667 73.5,52.5C 72.1667,52.5 71.5,53.1667 71.5,54.5C 70.1667,54.5 69.5,55.1667 69.5,56.5C 67.8333,57.5 66.5,58.8333 65.5,60.5C 64.5,60.8333 63.8333,61.5 63.5,62.5C 60.8154,65.1897 58.4821,68.1897 56.5,71.5C 55.0937,71.9731 54.427,72.9731 54.5,74.5C 46.5474,86.3026 44.714,98.9693 49,112.5C 50.1764,114.196 51.343,115.862 52.5,117.5C 52.8333,118.5 53.5,119.167 54.5,119.5C 57.2749,122.605 60.6082,124.938 64.5,126.5C 65.7804,127.931 67.4471,128.598 69.5,128.5C 78.1603,130.661 86.1603,129.327 93.5,124.5C 95.0269,124.573 96.0269,123.906 96.5,122.5C 97.1667,122.5 97.5,122.167 97.5,121.5C 98.5,121.167 99.1667,120.5 99.5,119.5C 100.5,119.167 101.167,118.5 101.5,117.5C 102.5,117.167 103.167,116.5 103.5,115.5C 105.94,112.957 107.606,109.957 108.5,106.5C 109.906,106.027 110.573,105.027 110.5,103.5C 114.541,92.9235 116.541,81.9235 116.5,70.5C 116.911,66.2062 117.911,62.0395 119.5,58C 118.944,57.6174 118.611,57.1174 118.5,56.5C 120.487,52.5266 122.487,48.5266 124.5,44.5C 126.401,43.7691 128.401,43.7691 130.5,44.5C 130.973,45.9063 131.973,46.573 133.5,46.5C 136.634,47.9009 139.634,49.5675 142.5,51.5C 140.215,55.7353 138.215,60.0686 136.5,64.5C 132.446,64.2105 131.946,64.8771 135,66.5C 135.5,74.1594 135.666,81.8261 135.5,89.5C 133.617,101.962 129.95,113.962 124.5,125.5C 123.094,125.973 122.427,126.973 122.5,128.5C 121.167,130.5 119.833,132.5 118.5,134.5C 117.5,134.833 116.833,135.5 116.5,136.5C 114.167,139.167 111.833,141.833 109.5,144.5C 107.973,144.427 106.973,145.094 106.5,146.5C 105.5,147.167 104.5,147.833 103.5,148.5C 102.5,148.833 101.833,149.5 101.5,150.5C 96.6083,152.779 91.6083,154.779 86.5,156.5C 81.5,156.5 76.5,156.5 71.5,156.5C 71.1667,140.5 70.8333,140.5 70.5,156.5C 69.5,156.5 68.5,156.5 67.5,156.5C 66.8333,156.5 66.1667,156.5 65.5,156.5C 63.7857,155.262 61.7857,154.595 59.5,154.5C 57.9505,153.559 56.2838,152.893 54.5,152.5C 53.4863,151.326 52.153,150.66 50.5,150.5C 49.4863,149.326 48.153,148.66 46.5,148.5C 46.0269,147.094 45.0269,146.427 43.5,146.5C 41.8816,144.684 39.8816,143.351 37.5,142.5C 38.6602,140.797 37.9935,140.131 35.5,140.5C 26.3215,131.295 21.9881,120.129 22.5,107C 22.7579,89.0604 28.0912,72.8938 38.5,58.5C 39.8333,58.5 40.5,57.8333 40.5,56.5C 44.1667,53.5 47.5,50.1667 50.5,46.5C 51.5,46.1667 52.1667,45.5 52.5,44.5C 53.5,44.1667 54.1667,43.5 54.5,42.5C 57.4495,40.8847 60.1162,38.8847 62.5,36.5C 63.5,36.1667 64.1667,35.5 64.5,34.5C 67.6164,29.9303 69.9498,24.9303 71.5,19.5 Z"/></g>
<g><path style="opacity:1" fill="#000000" d="M 89.5,26.5 C 91.4241,26.7107 91.7574,27.3774 90.5,28.5C 90.1667,27.8333 89.8333,27.1667 89.5,26.5 Z"/></g>
<g><path style="opacity:1" fill="#000000" d="M 64.5,34.5 C 64.1667,35.5 63.5,36.1667 62.5,36.5C 62.5,35.1667 63.1667,34.5 64.5,34.5 Z"/></g>
<g><path style="opacity:1" fill="#000000" d="M 84.5,40.5 C 84.573,42.0269 83.9063,43.0269 82.5,43.5C 81.5092,41.8773 82.1759,40.8773 84.5,40.5 Z"/></g>
<g><path style="opacity:1" fill="#000000" d="M 54.5,42.5 C 54.1667,43.5 53.5,44.1667 52.5,44.5C 52.5,43.1667 53.1667,42.5 54.5,42.5 Z"/></g>
<g><path style="opacity:1" fill="#000000" d="M 52.5,44.5 C 52.1667,45.5 51.5,46.1667 50.5,46.5C 50.5,45.1667 51.1667,44.5 52.5,44.5 Z"/></g>
<g><path style="opacity:1" fill="#000000" d="M 130.5,44.5 C 132.027,44.427 133.027,45.0937 133.5,46.5C 131.973,46.573 130.973,45.9063 130.5,44.5 Z"/></g>
<g><path style="opacity:1" fill="#000000" d="M 75.5,50.5 C 75.1667,51.5 74.5,52.1667 73.5,52.5C 73.5,51.1667 74.1667,50.5 75.5,50.5 Z"/></g>
<g><path style="opacity:1" fill="#a91004" d="M 56.5,54.5 C 56.8333,55.5 57.5,56.1667 58.5,56.5C 58.5,57.1667 58.5,57.8333 58.5,58.5C 57.9202,60.7488 56.5869,62.4154 54.5,63.5C 53.609,62.8902 52.609,62.5569 51.5,62.5C 50.1667,61.8333 49.1667,60.8333 48.5,59.5C 48.5,58.5 48.5,57.5 48.5,56.5C 49.8333,56.5 50.5,55.8333 50.5,54.5C 52.5,50.5 54.5,50.5 56.5,54.5 Z"/></g>
<g><path style="opacity:1" fill="#000000" d="M 73.5,52.5 C 73.1667,53.5 72.5,54.1667 71.5,54.5C 71.5,53.1667 72.1667,52.5 73.5,52.5 Z"/></g>
<g><path style="opacity:1" fill="#000000" d="M 50.5,54.5 C 50.5,55.8333 49.8333,56.5 48.5,56.5C 48.8333,55.5 49.5,54.8333 50.5,54.5 Z"/></g>
<g><path style="opacity:1" fill="#000000" d="M 56.5,54.5 C 57.8333,54.5 58.5,55.1667 58.5,56.5C 57.5,56.1667 56.8333,55.5 56.5,54.5 Z"/></g>
<g><path style="opacity:1" fill="#000000" d="M 71.5,54.5 C 71.1667,55.5 70.5,56.1667 69.5,56.5C 69.5,55.1667 70.1667,54.5 71.5,54.5 Z"/></g>
<g><path style="opacity:1" fill="#000000" d="M 40.5,56.5 C 40.5,57.8333 39.8333,58.5 38.5,58.5C 38.8333,57.5 39.5,56.8333 40.5,56.5 Z"/></g>
<g><path style="opacity:1" fill="#000000" d="M 48.5,56.5 C 48.5,57.5 48.5,58.5 48.5,59.5C 45.8333,58.5 45.8333,57.5 48.5,56.5 Z"/></g>
<g><path style="opacity:1" fill="#000000" d="M 58.5,56.5 C 61.1667,57.1667 61.1667,57.8333 58.5,58.5C 58.5,57.8333 58.5,57.1667 58.5,56.5 Z"/></g>
<g><path style="opacity:1" fill="#000000" d="M 118.5,56.5 C 118.611,57.1174 118.944,57.6174 119.5,58C 117.911,62.0395 116.911,66.2062 116.5,70.5C 116.334,66.1539 116.501,61.8206 117,57.5C 117.383,56.944 117.883,56.6107 118.5,56.5 Z"/></g>
<g><path style="opacity:1" fill="#000000" d="M 120.5,59.5 C 121.497,58.2875 122.497,58.4542 123.5,60C 122.423,60.4696 121.423,60.3029 120.5,59.5 Z"/></g>
<g><path style="opacity:1" fill="#000000" d="M 65.5,60.5 C 65.5,61.8333 64.8333,62.5 63.5,62.5C 63.8333,61.5 64.5,60.8333 65.5,60.5 Z"/></g>
<g><path style="opacity:1" fill="#000000" d="M 51.5,62.5 C 52.609,62.5569 53.609,62.8902 54.5,63.5C 53.221,64.7152 52.221,64.3818 51.5,62.5 Z"/></g>
<g><path style="opacity:1" fill="#000000" d="M 136.5,64.5 C 136.826,73.0168 136.493,81.3501 135.5,89.5C 135.666,81.8261 135.5,74.1594 135,66.5C 131.946,64.8771 132.446,64.2105 136.5,64.5 Z"/></g>
<g><path style="opacity:1" fill="#000000" d="M 56.5,71.5 C 56.573,73.0269 55.9063,74.0269 54.5,74.5C 54.427,72.9731 55.0937,71.9731 56.5,71.5 Z"/></g>
<g><path style="opacity:1" fill="#9f1205" d="M 40.5,82.5 C 41.1098,83.391 41.4431,84.391 41.5,85.5C 41.1667,87.5 40.8333,89.5 40.5,91.5C 38.2646,91.7947 36.2646,91.4614 34.5,90.5C 33.1938,89.5326 32.5271,88.1993 32.5,86.5C 32.2606,84.5328 32.5939,82.6995 33.5,81C 36.0583,80.7247 38.3916,81.2247 40.5,82.5 Z"/></g>
<g><path style="opacity:1" fill="#000000" d="M 40.5,82.5 C 42.5518,83.0527 42.8852,84.0527 41.5,85.5C 41.4431,84.391 41.1098,83.391 40.5,82.5 Z"/></g>
<g><path style="opacity:1" fill="#cb0000" d="M 123.5,85.5 C 125.265,86.4614 127.265,86.7947 129.5,86.5C 129.5,87.5 129.5,88.5 129.5,89.5C 128.549,90.9187 128.216,92.5853 128.5,94.5C 126.5,94.5 124.5,94.5 122.5,94.5C 120.925,92.8863 120.259,90.8863 120.5,88.5C 120.5,87.5 120.5,86.5 120.5,85.5C 121.5,85.5 122.5,85.5 123.5,85.5 Z"/></g>
<g><path style="opacity:1" fill="#000000" d="M 123.5,85.5 C 125.833,85.5 128.167,85.5 130.5,85.5C 130.768,87.099 130.434,88.4324 129.5,89.5C 129.5,88.5 129.5,87.5 129.5,86.5C 127.265,86.7947 125.265,86.4614 123.5,85.5 Z"/></g>
<g><path style="opacity:1" fill="#000000" d="M 32.5,86.5 C 32.5271,88.1993 33.1938,89.5326 34.5,90.5C 33.5,90.5 32.5,90.5 31.5,90.5C 31.2322,88.901 31.5655,87.5676 32.5,86.5 Z"/></g>
<g><path style="opacity:1" fill="#000000" d="M 120.5,88.5 C 120.259,90.8863 120.925,92.8863 122.5,94.5C 121.127,94.6567 119.793,94.49 118.5,94C 119.109,92.0517 119.776,90.2184 120.5,88.5 Z"/></g>
<g><path style="opacity:1" fill="#000000" d="M 129.5,89.5 C 129.5,91.5 129.5,93.5 129.5,95.5C 126.941,95.8016 124.607,95.4682 122.5,94.5C 124.5,94.5 126.5,94.5 128.5,94.5C 128.216,92.5853 128.549,90.9187 129.5,89.5 Z"/></g>
<g><path style="opacity:1" fill="#000000" d="M 110.5,103.5 C 110.573,105.027 109.906,106.027 108.5,106.5C 108.427,104.973 109.094,103.973 110.5,103.5 Z"/></g>
<g><path style="opacity:1" fill="#000000" d="M 36.5,113.5 C 34.7706,114.236 33.7706,115.57 33.5,117.5C 31.9652,114.67 32.9652,113.337 36.5,113.5 Z"/></g>
<g><path style="opacity:1" fill="#a91004" d="M 43.5,119.5 C 42.9002,120.9 41.9002,121.9 40.5,122.5C 39.2921,123.234 37.9587,123.567 36.5,123.5C 35.8333,123.167 35.1667,122.833 34.5,122.5C 33.962,120.883 33.6287,119.216 33.5,117.5C 33.7706,115.57 34.7706,114.236 36.5,113.5C 41.6484,111.753 43.9817,113.753 43.5,119.5 Z"/></g>
<g><path style="opacity:1" fill="#000000" d="M 103.5,115.5 C 103.167,116.5 102.5,117.167 101.5,117.5C 101.5,116.167 102.167,115.5 103.5,115.5 Z"/></g>
<g><path style="opacity:1" fill="#9e1205" d="M 118.5,118.5 C 118.5,119.5 118.5,120.5 118.5,121.5C 116.35,128.497 112.85,128.83 108,122.5C 107.308,121.563 107.475,120.897 108.5,120.5C 109.906,120.027 110.573,119.027 110.5,117.5C 110.415,116.005 111.081,115.005 112.5,114.5C 114.813,115.5 116.813,116.834 118.5,118.5 Z"/></g>
<g><path style="opacity:1" fill="#fefffe" d="M -0.5,117.5 C 6.73062,157.397 30.064,182.064 69.5,191.5C 46.1667,191.5 22.8333,191.5 -0.5,191.5C -0.5,166.833 -0.5,142.167 -0.5,117.5 Z"/></g>
<g><path style="opacity:1" fill="#000000" d="M 52.5,117.5 C 53.8333,117.5 54.5,118.167 54.5,119.5C 53.5,119.167 52.8333,118.5 52.5,117.5 Z"/></g>
<g><path style="opacity:1" fill="#000000" d="M 110.5,117.5 C 110.573,119.027 109.906,120.027 108.5,120.5C 108.427,118.973 109.094,117.973 110.5,117.5 Z"/></g>
<g><path style="opacity:1" fill="#000000" d="M 118.5,118.5 C 120.557,118.957 120.557,119.957 118.5,121.5C 118.5,120.5 118.5,119.5 118.5,118.5 Z"/></g>
<g><path style="opacity:1" fill="#000000" d="M 43.5,119.5 C 44.404,120.209 44.7373,121.209 44.5,122.5C 43.1667,122.5 41.8333,122.5 40.5,122.5C 41.9002,121.9 42.9002,120.9 43.5,119.5 Z"/></g>
<g><path style="opacity:1" fill="#000000" d="M 99.5,119.5 C 99.1667,120.5 98.5,121.167 97.5,121.5C 97.5,120.167 98.1667,119.5 99.5,119.5 Z"/></g>
<g><path style="opacity:1" fill="#fefffe" d="M 165.5,119.5 C 165.5,143.5 165.5,167.5 165.5,191.5C 142.167,191.5 118.833,191.5 95.5,191.5C 104.002,189.388 112.336,186.554 120.5,183C 125.672,179.915 130.672,176.581 135.5,173C 151.89,158.716 161.89,140.883 165.5,119.5 Z"/></g>
<g><path style="opacity:1" fill="#000000" d="M 34.5,122.5 C 35.1667,122.833 35.8333,123.167 36.5,123.5C 35.3774,124.757 34.7107,124.424 34.5,122.5 Z"/></g>
<g><path style="opacity:1" fill="#000000" d="M 96.5,122.5 C 96.0269,123.906 95.0269,124.573 93.5,124.5C 93.9731,123.094 94.9731,122.427 96.5,122.5 Z"/></g>
<g><path style="opacity:1" fill="#000000" d="M 124.5,125.5 C 124.573,127.027 123.906,128.027 122.5,128.5C 122.427,126.973 123.094,125.973 124.5,125.5 Z"/></g>
<g><path style="opacity:1" fill="#000000" d="M 64.5,126.5 C 66.5529,126.402 68.2196,127.069 69.5,128.5C 67.4471,128.598 65.7804,127.931 64.5,126.5 Z"/></g>
<g><path style="opacity:1" fill="#000000" d="M 118.5,134.5 C 118.5,135.833 117.833,136.5 116.5,136.5C 116.833,135.5 117.5,134.833 118.5,134.5 Z"/></g>
<g><path style="opacity:1" fill="#000000" d="M 41.5,136.5 C 43.9752,136.747 43.9752,137.413 41.5,138.5C 40.537,138.03 40.537,137.363 41.5,136.5 Z"/></g>
<g><path style="opacity:1" fill="#000000" d="M 87.5,136.5 C 86.2196,137.931 84.5529,138.598 82.5,138.5C 83.7804,137.069 85.4471,136.402 87.5,136.5 Z"/></g>
<g><path style="opacity:1" fill="#9e1205" d="M 86.5,146.5 C 85.8333,145.833 85.1667,145.167 84.5,144.5C 83.6087,142.709 82.6087,140.876 81.5,139C 81.7284,138.601 82.0618,138.435 82.5,138.5C 84.5529,138.598 86.2196,137.931 87.5,136.5C 88.5417,135.209 89.7083,135.209 91,136.5C 95.374,142.518 93.874,145.851 86.5,146.5 Z"/></g>
<g><path style="opacity:1" fill="#000000" d="M 35.5,140.5 C 37.9935,140.131 38.6602,140.797 37.5,142.5C 36.5,142.167 35.8333,141.5 35.5,140.5 Z"/></g>
<g><path style="opacity:1" fill="#000000" d="M 62.5,141.5 C 63.7211,140.535 65.0544,140.702 66.5,142C 65.0715,142.579 63.7382,142.412 62.5,141.5 Z"/></g>
<g><path style="opacity:1" fill="#000000" d="M 86.5,156.5 C 80.1667,157.833 73.8333,157.833 67.5,156.5C 68.5,156.5 69.5,156.5 70.5,156.5C 70.8333,140.5 71.1667,140.5 71.5,156.5C 76.5,156.5 81.5,156.5 86.5,156.5 Z"/></g>
<g><path style="opacity:1" fill="#000000" d="M 84.5,144.5 C 85.1667,145.167 85.8333,145.833 86.5,146.5C 86.44,147.043 86.1067,147.376 85.5,147.5C 84.6143,146.675 84.281,145.675 84.5,144.5 Z"/></g>
<g><path style="opacity:1" fill="#000000" d="M 109.5,144.5 C 109.027,145.906 108.027,146.573 106.5,146.5C 106.973,145.094 107.973,144.427 109.5,144.5 Z"/></g>
<g><path style="opacity:1" fill="#000000" d="M 43.5,146.5 C 45.0269,146.427 46.0269,147.094 46.5,148.5C 44.9731,148.573 43.9731,147.906 43.5,146.5 Z"/></g>
<g><path style="opacity:1" fill="#000000" d="M 103.5,148.5 C 103.5,149.833 102.833,150.5 101.5,150.5C 101.833,149.5 102.5,148.833 103.5,148.5 Z"/></g>
<g><path style="opacity:1" fill="#000000" d="M 50.5,150.5 C 52.153,150.66 53.4863,151.326 54.5,152.5C 52.6203,152.771 51.287,152.104 50.5,150.5 Z"/></g>
<g><path style="opacity:1" fill="#000000" d="M 59.5,154.5 C 61.7857,154.595 63.7857,155.262 65.5,156.5C 63.1016,156.741 61.1016,156.074 59.5,154.5 Z"/></g>
</svg>

<svg xmlns="http://www.w3.org/2000/svg" width="166" height="192" style="shape-rendering:geometricPrecision;text-rendering:geometricPrecision;image-rendering:optimizeQuality;fill-rule:evenodd;clip-rule:evenodd"><path style="opacity:1" d="M-.5-.5h166v120c-3.61 21.383-13.61 39.216-30 53.5a179.617 179.617 0 0 1-15 10 157.946 157.946 0 0 1-25 8.5h-26c-39.436-9.436-62.77-34.103-70-74V-.5z"/><path style="opacity:1" fill="#c80200" d="M3.5 3.5h158c.167 39.668 0 79.335-.5 119-7.556 33.222-27.722 54.388-60.5 63.5-40.87 6.648-71.036-8.185-90.5-44.5a119.953 119.953 0 0 1-6-20c-.5-39.332-.667-78.665-.5-118z"/><path style="opacity:1" d="M74.5 19.5h-3c.76-2.485 1.76-2.485 3 0z"/><path style="opacity:1" fill="#fcfcfc" d="M71.5 19.5h3a153.198 153.198 0 0 0 15 7l1 2c-2.508 3.682-4.508 7.682-6 12-2.324.377-2.99 1.377-2 3-2.667 2-5 4.333-7 7-1.333 0-2 .667-2 2-1.333 0-2 .667-2 2-1.333 0-2 .667-2 2-1.667 1-3 2.333-4 4-1 .333-1.667 1-2 2a46.494 46.494 0 0 0-7 9c-1.406.473-2.073 1.473-2 3-7.953 11.803-9.786 24.47-5.5 38a714.894 714.894 0 0 0 3.5 5c.333 1 1 1.667 2 2 2.775 3.105 6.108 5.438 10 7 1.28 1.431 2.947 2.098 5 2 8.66 2.161 16.66.827 24-4 1.527.073 2.527-.594 3-2 .667 0 1-.333 1-1 1-.333 1.667-1 2-2 1-.333 1.667-1 2-2 1-.333 1.667-1 2-2 2.44-2.543 4.106-5.543 5-9 1.406-.473 2.073-1.473 2-3 4.041-10.576 6.041-21.576 6-33a45.945 45.945 0 0 1 3-12.5c-.556-.383-.889-.883-1-1.5l6-12c1.901-.73 3.901-.73 6 0 .473 1.406 1.473 2.073 3 2a59.51 59.51 0 0 1 9 5 114.054 114.054 0 0 0-6 13c-4.054-.29-4.554.377-1.5 2 .5 7.66.666 15.326.5 23-1.883 12.462-5.55 24.462-11 36-1.406.473-2.073 1.473-2 3l-4 6c-1 .333-1.667 1-2 2l-7 8c-1.527-.073-2.527.594-3 2l-3 2c-1 .333-1.667 1-2 2a145.468 145.468 0 0 1-15 6h-15c-.333-16-.667-16-1 0h-5c-1.714-1.238-3.714-1.905-6-2a16.336 16.336 0 0 0-5-2c-1.014-1.174-2.347-1.84-4-2-1.014-1.174-2.347-1.84-4-2-.473-1.406-1.473-2.073-3-2-1.618-1.816-3.618-3.149-6-4 1.16-1.703.493-2.369-2-2-9.178-9.205-13.512-20.371-13-33.5.258-17.94 5.591-34.106 16-48.5 1.333 0 2-.667 2-2 3.667-3 7-6.333 10-10 1-.333 1.667-1 2-2 1-.333 1.667-1 2-2a35.085 35.085 0 0 0 8-6c1-.333 1.667-1 2-2 3.116-4.57 5.45-9.57 7-15z"/><path style="opacity:1" d="M89.5 26.5c1.924.21 2.257.877 1 2l-1-2zM64.5 34.5c-.333 1-1 1.667-2 2 0-1.333.667-2 2-2zM84.5 40.5c.073 1.527-.594 2.527-2 3-.99-1.623-.324-2.623 2-3zM54.5 42.5c-.333 1-1 1.667-2 2 0-1.333.667-2 2-2zM52.5 44.5c-.333 1-1 1.667-2 2 0-1.333.667-2 2-2zM130.5 44.5c1.527-.073 2.527.594 3 2-1.527.073-2.527-.594-3-2zM75.5 50.5c-.333 1-1 1.667-2 2 0-1.333.667-2 2-2z"/><path style="opacity:1" fill="#a91004" d="M56.5 54.5c.333 1 1 1.667 2 2v2c-.58 2.249-1.913 3.915-4 5a5.728 5.728 0 0 0-3-1 6.541 6.541 0 0 1-3-3v-3c1.333 0 2-.667 2-2 2-4 4-4 6 0z"/><path style="opacity:1" d="M73.5 52.5c-.333 1-1 1.667-2 2 0-1.333.667-2 2-2zM50.5 54.5c0 1.333-.667 2-2 2 .333-1 1-1.667 2-2zM56.5 54.5c1.333 0 2 .667 2 2-1-.333-1.667-1-2-2zM71.5 54.5c-.333 1-1 1.667-2 2 0-1.333.667-2 2-2zM40.5 56.5c0 1.333-.667 2-2 2 .333-1 1-1.667 2-2zM48.5 56.5v3c-2.667-1-2.667-2 0-3zM58.5 56.5c2.667.667 2.667 1.333 0 2v-2zM118.5 56.5c.111.617.444 1.117 1 1.5a45.945 45.945 0 0 0-3 12.5 84.9 84.9 0 0 1 .5-13c.383-.556.883-.89 1.5-1zM120.5 59.5c.997-1.212 1.997-1.046 3 .5-1.077.47-2.077.303-3-.5zM65.5 60.5c0 1.333-.667 2-2 2 .333-1 1-1.667 2-2zM51.5 62.5a5.728 5.728 0 0 1 3 1c-1.279 1.215-2.279.882-3-1zM136.5 64.5c.326 8.517-.007 16.85-1 25 .166-7.674 0-15.34-.5-23-3.054-1.623-2.554-2.29 1.5-2zM56.5 71.5c.073 1.527-.594 2.527-2 3-.073-1.527.594-2.527 2-3z"/><path style="opacity:1" fill="#9f1205" d="M40.5 82.5c.61.891.943 1.891 1 3l-1 6c-2.235.295-4.235-.039-6-1-1.306-.967-1.973-2.3-2-4-.24-1.967.094-3.8 1-5.5 2.558-.275 4.892.225 7 1.5z"/><path style="opacity:1" d="M40.5 82.5c2.052.553 2.385 1.553 1 3a5.728 5.728 0 0 0-1-3z"/><path style="opacity:1" fill="#cb0000" d="M123.5 85.5c1.765.961 3.765 1.295 6 1v3c-.951 1.419-1.284 3.085-1 5h-6c-1.575-1.614-2.241-3.614-2-6v-3h3z"/><path style="opacity:1" d="M123.5 85.5h7c.268 1.599-.066 2.932-1 4v-3c-2.235.295-4.235-.039-6-1zM32.5 86.5c.027 1.7.694 3.033 2 4h-3c-.268-1.599.066-2.932 1-4zM120.5 88.5c-.241 2.386.425 4.386 2 6a8.435 8.435 0 0 1-4-.5 61.172 61.172 0 0 1 2-5.5zM129.5 89.5v6c-2.559.302-4.893-.032-7-1h6c-.284-1.915.049-3.581 1-5zM110.5 103.5c.073 1.527-.594 2.527-2 3-.073-1.527.594-2.527 2-3zM36.5 113.5c-1.73.736-2.73 2.07-3 4-1.535-2.83-.535-4.163 3-4z"/><path style="opacity:1" fill="#a91004" d="M43.5 119.5c-.6 1.4-1.6 2.4-3 3-1.208.734-2.541 1.067-4 1l-2-1a20.676 20.676 0 0 1-1-5c.27-1.93 1.27-3.264 3-4 5.148-1.747 7.482.253 7 6z"/><path style="opacity:1" d="M103.5 115.5c-.333 1-1 1.667-2 2 0-1.333.667-2 2-2z"/><path style="opacity:1" fill="#9e1205" d="M118.5 118.5v3c-2.15 6.997-5.65 7.33-10.5 1-.692-.937-.525-1.603.5-2 1.406-.473 2.073-1.473 2-3-.085-1.495.581-2.495 2-3 2.313 1 4.313 2.334 6 4z"/><path style="opacity:1" fill="#fefffe" d="M-.5 117.5c7.23 39.897 30.564 64.564 70 74h-70v-74z"/><path style="opacity:1" d="M52.5 117.5c1.333 0 2 .667 2 2-1-.333-1.667-1-2-2zM110.5 117.5c.073 1.527-.594 2.527-2 3-.073-1.527.594-2.527 2-3zM118.5 118.5c2.057.457 2.057 1.457 0 3v-3zM43.5 119.5c.904.709 1.237 1.709 1 3h-4c1.4-.6 2.4-1.6 3-3zM99.5 119.5c-.333 1-1 1.667-2 2 0-1.333.667-2 2-2z"/><path style="opacity:1" fill="#fefffe" d="M165.5 119.5v72h-70a157.946 157.946 0 0 0 25-8.5 179.617 179.617 0 0 0 15-10c16.39-14.284 26.39-32.117 30-53.5z"/><path style="opacity:1" d="m34.5 122.5 2 1c-1.123 1.257-1.79.924-2-1zM96.5 122.5c-.473 1.406-1.473 2.073-3 2 .473-1.406 1.473-2.073 3-2zM124.5 125.5c.073 1.527-.594 2.527-2 3-.073-1.527.594-2.527 2-3zM64.5 126.5c2.053-.098 3.72.569 5 2-2.053.098-3.72-.569-5-2zM118.5 134.5c0 1.333-.667 2-2 2 .333-1 1-1.667 2-2zM41.5 136.5c2.475.247 2.475.913 0 2-.963-.47-.963-1.137 0-2zM87.5 136.5c-1.28 1.431-2.947 2.098-5 2 1.28-1.431 2.947-2.098 5-2z"/><path style="opacity:1" fill="#9e1205" d="m86.5 146.5-2-2a87.122 87.122 0 0 0-3-5.5c.228-.399.562-.565 1-.5 2.053.098 3.72-.569 5-2 1.042-1.291 2.208-1.291 3.5 0 4.374 6.018 2.874 9.351-4.5 10z"/><path style="opacity:1" d="M35.5 140.5c2.493-.369 3.16.297 2 2-1-.333-1.667-1-2-2zM62.5 141.5c1.221-.965 2.554-.798 4 .5-1.428.579-2.762.412-4-.5zM86.5 156.5a45.636 45.636 0 0 1-19 0h3c.333-16 .667-16 1 0h15zM84.5 144.5l2 2c-.06.543-.393.876-1 1-.886-.825-1.219-1.825-1-3zM109.5 144.5c-.473 1.406-1.473 2.073-3 2 .473-1.406 1.473-2.073 3-2zM43.5 146.5c1.527-.073 2.527.594 3 2-1.527.073-2.527-.594-3-2zM103.5 148.5c0 1.333-.667 2-2 2 .333-1 1-1.667 2-2zM50.5 150.5c1.653.16 2.986.826 4 2-1.88.271-3.213-.396-4-2zM59.5 154.5c2.286.095 4.286.762 6 2-2.398.241-4.398-.426-6-2z"/></svg>
